X:50
T: Erre barát mi falunkba fapapucsba járnak
O: Lészped (Bákó), 1932.
Q: 1/4=120
M:2/4
L:1/4
K:C
c/>A/ A/<A/ | A/A/G/F/ | F/G/A/G/ | F F/ z/ | 
(3:2:2 cA/  (3:2:2 A/A | (3:2:2 A/A G/F/ | A/G/F/E/ | D D/ z/ | 
(3:2:2 F G/ A/G/ | A/A/G/F/ | G/G/F/C/ | F F/ z/ | 
F/G/A/G/ | d/G/A/F/ | (3:2:3 G/z/G/ (3:2:3 F/z/E/ | D D | 

